src/assets/icons/fa/train.svg

<?xml version="1.0" encoding="utf-8"?>
<svg width="1792" height="1792" viewBox="0 0 1792 1792" xmlns="http://www.w3.org/2000/svg"><path d="M1216 0q185 0 316.5 93.5t131.5 226.5v896q0 130-125.5 222t-305.5 97l213 202q16 15 8 35t-30 20h-1056q-22 0-30-20t8-35l213-202q-180-5-305.5-97t-125.5-222v-896q0-133 131.5-226.5t316.5-93.5h640zm-320 1344q80 0 136-56t56-136-56-136-136-56-136 56-56 136 56 136 136 56zm576-576v-512h-1152v512h1152z"/></svg>

<svg width="1792" height="1792" xmlns="http://www.w3.org/2000/svg"><path d="M1216 0q185 0 316.5 93.5T1664 320v896q0 130-125.5 222t-305.5 97l213 202q16 15 8 35t-30 20H368q-22 0-30-20t8-35l213-202q-180-5-305.5-97T128 1216V320q0-133 131.5-226.5T576 0h640zM896 1344q80 0 136-56t56-136-56-136-136-56-136 56-56 136 56 136 136 56zm576-576V256H320v512h1152z"/></svg>
